icons/square-check-outline.svg

<svg xmlns="http://www.w3.org/2000/svg" width="24" height="24" viewBox="0 0 24 24">
  <path d="M19,2 C20.6568542,2 22,3.34314575 22,5 L22,5 L22,19 C22,20.6568542 20.6568542,22 19,22 L19,22 L5,22 C3.34314575,22 2,20.6568542 2,19 L2,19 L2,5 C2,3.34314575 3.34314575,2 5,2 L5,2 Z M19,4 L5,4 C4.44771525,4 4,4.44771525 4,5 L4,5 L4,19 C4,19.5522847 4.44771525,20 5,20 L5,20 L19,20 C19.5522847,20 20,19.5522847 20,19 L20,19 L20,5 C20,4.44771525 19.5522847,4 19,4 L19,4 Z M17.6616216,7.25016214 C18.04389,7.58745772 18.1069484,8.15185442 17.826988,8.5624086 L17.7498379,8.66162164 L10.6910143,16.6616216 C10.3213573,17.0805663 9.68837141,17.1104909 9.28109597,16.7513955 L9.19133862,16.6616216 L6.25016214,13.3282883 C5.8847586,12.9141643 5.92425435,12.2822324 6.33837836,11.9168288 C6.72064668,11.5795332 7.28850282,11.5872406 7.66100314,11.9161419 L7.74983786,12.005045 L9.941,14.488 L16.2501621,7.33837836 C16.6155657,6.92425435 17.2474976,6.8847586 17.6616216,7.25016214 Z"/>
</svg>

<svg xmlns="http://www.w3.org/2000/svg" viewBox="0 0 24 24">
  <path d="M19 2a3 3 0 0 1 3 3v14a3 3 0 0 1-3 3H5a3 3 0 0 1-3-3V5a3 3 0 0 1 3-3zm0 2H5a1 1 0 0 0-1 1v14a1 1 0 0 0 1 1h14a1 1 0 0 0 1-1V5a1 1 0 0 0-1-1zm-1.34 3.25a1 1 0 0 1 .17 1.31l-.08.1-7.06 8a1 1 0 0 1-1.4.1l-.1-.1-2.94-3.33a1 1 0 0 1 1.41-1.41l.09.09 2.2 2.48 6.3-7.15a1 1 0 0 1 1.41-.09z"/>
</svg>
